src/recipe.svg

<svg viewBox="0 0 16 16" fill="none" xmlns="http://www.w3.org/2000/svg"><path d="M14.84 9.42L13.24 3H1.16L2 4.48L3.2 6.66L3.7 11C3.77728 11.5549 4.05273 12.0631 4.47549 12.4307C4.89826 12.7983 5.43976 13.0005 6 13H9.7C10.2608 13.0026 10.8035 12.8012 11.2267 12.4332C11.6499 12.0652 11.9247 11.5558 12 11L12.74 5.08L13.86 9.66L14.84 9.42ZM9.7 12H6C5.68151 11.9957 5.37513 11.8773 5.13656 11.6663C4.89799 11.4552 4.74308 11.1656 4.7 10.85L4.59 10H11.09L10.99 10.85C10.9472 11.1639 10.7937 11.4522 10.5572 11.6631C10.3207 11.8739 10.0168 11.9934 9.7 12ZM11.7 5H7.84V6H11.59L11.46 7H7.84V8H11.34L11.23 9H4.46L4.13 6.34L2.84 4H11.84L11.7 5Z" fill="#111111"/></svg>

<svg xmlns="http://www.w3.org/2000/svg" viewBox="0 0 16 16" fill="#000000"><title>Recipe</title><path id="recipe_svg__recipe" d="M14.84,9.42,13.24,3H1.16L2,4.48l1.2,2.18L3.7,11A2.32,2.32,0,0,0,6,13h3.7A2.31,2.31,0,0,0,12,11l.74-5.92,1.12,4.58ZM9.7,12H6a1.33,1.33,0,0,1-1.3-1.15L4.59,10h6.5l-.1.85A1.33,1.33,0,0,1,9.7,12Zm2-7H7.84V6h3.75l-.13,1H7.84V8h3.5l-.11,1H4.46L4.13,6.34,2.84,4h9Z"/></svg>
